gama.ui.shared/icons_svg/dark/gaml/_inspect.svg

<svg height="18" viewBox="-741.587 -2807.737 24 18" width="24" xmlns="http://www.w3.org/2000/svg"><path d="m-741.56165-2798.865c1.45175-3.9308 5.65105-5.8784 9.38225-4.3517 1.8996.7777 3.4056 2.3543 4.1383 4.3517.0339.0858.0339.1785 0 .257-1.445 3.9237-5.6511 5.8785-9.3823 4.3518-1.8995-.7776-3.3988-2.3543-4.13825-4.3518-.03395-.0856-.03395-.1784 0-.257zm4.38925 3.9453c3.3445 1.3627 7.1029-.3423 8.4529-3.8167-.6852-1.7479-2.02165-3.1319-3.7041-3.8168-3.3445-1.3626-7.0961.3424-8.4529 3.8168.6852 1.7478 2.0217 3.1318 3.7041 3.8167zm2.3744-.9631c-1.49926 0-2.7136-1.277-2.7136-2.8536s1.21434-2.8536 2.7136-2.8536c1.4993 0 2.7136 1.277 2.7136 2.8536s-1.2143 2.8536-2.7136 2.8536zm0-.7134c1.1262 0 2.0352-.956 2.0352-2.1402 0-1.1843-.909-2.1403-2.0352-2.1403-1.1261 0-2.0352.956-2.0352 2.1403 0 1.1842.9091 2.1402 2.0352 2.1402z" fill="#999"/></svg>

<?xml version="1.0" encoding="UTF-8" standalone="no"?>
<!DOCTYPE svg PUBLIC "-//W3C//DTD SVG 1.1//EN" "http://www.w3.org/Graphics/SVG/1.1/DTD/svg11.dtd">
<svg xmlns:dc="http://purl.org/dc/elements/1.1/" xmlns:xl="http://www.w3.org/1999/xlink" version="1.1" xmlns="http://www.w3.org/2000/svg" viewBox="-741.5871 -2807.737 24 18" width="24" height="18">
  <defs/>
  <g id="SOURCES" stroke-dasharray="none" stroke="none" stroke-opacity="1" fill="none" fill-opacity="1">
    <title>SOURCES</title>
    <g id="SOURCES_New">
      <title>New</title>
      <g id="Group_10504">
        <g id="Graphic_10232"/>
        <g id="Group_10230">
          <title>eye</title>
          <g id="Graphic_10231">
            <path d="M -741.56165 -2798.865 C -740.1099 -2802.7958 -735.9106 -2804.7434 -732.1794 -2803.2167 C -730.2798 -2802.439 -728.7738 -2800.8624 -728.0411 -2798.865 C -728.0072 -2798.7792 -728.0072 -2798.6865 -728.0411 -2798.608 C -729.4861 -2794.6843 -733.6922 -2792.7295 -737.4234 -2794.2562 C -739.3229 -2795.0338 -740.8222 -2796.6105 -741.56165 -2798.608 C -741.5956 -2798.6936 -741.5956 -2798.7864 -741.56165 -2798.865 Z M -737.1724 -2794.9197 C -733.8279 -2793.557 -730.0695 -2795.262 -728.7195 -2798.7364 C -729.4047 -2800.4843 -730.74115 -2801.8683 -732.4236 -2802.5532 C -735.7681 -2803.9158 -739.5197 -2802.2108 -740.8765 -2798.7364 C -740.1913 -2796.9886 -738.8548 -2795.6046 -737.1724 -2794.9197 Z M -734.798 -2795.8828 C -736.29726 -2795.8828 -737.5116 -2797.1598 -737.5116 -2798.7364 C -737.5116 -2800.313 -736.29726 -2801.59 -734.798 -2801.59 C -733.2987 -2801.59 -732.0844 -2800.313 -732.0844 -2798.7364 C -732.0844 -2797.1598 -733.2987 -2795.8828 -734.798 -2795.8828 Z M -734.798 -2796.5962 C -733.6718 -2796.5962 -732.7628 -2797.5522 -732.7628 -2798.7364 C -732.7628 -2799.9207 -733.6718 -2800.8767 -734.798 -2800.8767 C -735.9241 -2800.8767 -736.8332 -2799.9207 -736.8332 -2798.7364 C -736.8332 -2797.5522 -735.9241 -2796.5962 -734.798 -2796.5962 Z" fill="#999"/>
          </g>
        </g>
      </g>
    </g>
  </g>
</svg>
